**kern	**kern	**dynam
*part1	*part1	*part1
*staff2	*staff1	*
*I"Piano	*	*
*clefF4	*clefG2	*
*k[f#]	*k[f#]	*
*M2/4	*M2/4	*
=1	=1	=1
*^	*^	*
8.GGL	2GG	([2b	4rcyy	p
(16DJk 16B	.	.	.	.
4ryy	.	.	[4d)	.
=	=	=	=	=
8.GGL	2GG	12bL]	4d]	.
.	.	12a	.	.
.	.	12bJ	.	.
(16DJk 16c	.	.	.	.
4ryy	.	12ccL	[4d)	.
.	.	12b	.	.
.	.	12aJ	.	.
=	=	=	=	=
8.GGL	2GG	2g	4d]	.
(16DJk 16B	.	.	.	.
4ryy	.	.	[4d)	.
=	=	=	=	=
8.GGL	2GG	[2d)	4d]	.
(16DJk 16A	.	.	.	.
4ryy	.	.	4c)	.
*	*	*v	*v	*
=	=	=	=
8.GGL	2GG	4d]	.
(16DJk 16B	.	.	.
4ryy	.	[4d)	.
=	=	=	=
8.GGL	2GG	4d]	.
(16DJk 16A	.	.	.
4ryy	.	[4d)	.
=	=	=	=
8.GGL	2GG	4d]	.
(16DJk 16G	.	.	.
4ryy	.	[4d)	.
=	=	=	=
8.GGL	2GG	4d]	.
(16DJk 16G	.	.	.
4ryy	.	[4d)	.
*v	*v	*	*
=	=	=
*-	*-	*-
!!!system-decoration: {(s1,s2)}
